X:1
T:O’er the Hills of Old Judea
T:O’er the Hills of Old Judea
T:Charles Hutchinson Gabriel
T:Lizie DeArmond, 1908
T:Public Domain Courtesy of the Cyber Hymnal™
T:Public Domain Courtesy of the Cyber Hymnal™
C:Charles Hutchinson Gabriel
Z:Public Domain
Z:Courtesy of the Cyber Hymnal™
%%score ( 1 2 ) ( 3 4 )
L:1/8
Q:1/4=112
M:4/4
K:Bb
V:1 treble 
V:2 treble 
V:3 bass 
V:4 bass 
V:1
 [DB]2 [DB]2 [DA]2 [DA]2 | [DG]2 [DG]2 [DF]2 [B,D]2 | [DF]2 [Fd]2 [Ec]2 [DB]2 | [EB]2 [EA]2 [EA]4 | %4
w: 1.~O’er the hills of|old Ju- de- a|shines a light from|Heav- en’s throne,|
w: 2.~Dawns the hour so|long ex- pect- ed—|wake, ye lands to|end- less praise,|
w: 3.~“Peace, good- will”— the|world is ring- ing|with the ev- er-|last- ing song,|
 [Ac]2 [Ac]2 [GB]2 [GB]2 | [FA]2 [FA]2 [EG]2 [CE]2 | [FA]4 [EG]4 | [DF]6 z2 x2 | %8
w: Chim- ing bells ring|in the glor- ious|morn of|peace;|
w: Shout a- loud the|bless- èd sto- ry|true and|sweet;|
w: God’s dear love still|shines a- long our|pil- grim|way;|
 [DB]2 [DB]2 [DA]2 [DA]2 | [DG]2 [DG]2 [DF]2 [B,D]2 | [DF]2 [Fd]2 [Fc]2 [_AB]2 | %11
w: Earth is lost in|joy- ful won- der,|an- gels bright ex-|
w: In a low- ly|man- ger sleep- ing|lies the Babe of|
w: Throw your heart- doors|glad- ly o- pen,|hail with joy the|
 [GB]2 [FA]2 [FA]4 | [Fc]2 [Fc]2 [=Ec]2 [EG]2 | [Fc]2 [=Ec]2 [Fc]2 [GB]2 | [FA]4 [=EG]4 | F6 z2 || %16
w: ult- ant sing|Of the Christ, whose|reign of glad- ness|ne’er shall|cease.|
w: Beth- le- hem;|Bow in wor- ship|now be- fore the|Sav- ior’s|feet.|
w: King di- vine,|Born to us a-|gain this ho- ly,|hap- py|day.|
"^Refrain" [Fd]2 [Fd]2 [Fd]2 [Ec]2 | [Ec]2 [DB]2 [B,D]2 [DF]2 | c4 B4 | A6 (AFAc) | %20
w: Hail with joy the|bless- èd com- ing|of the|King, Praise * * *|
w: ||||
w: ||||
 [Fe]2 [Fe]2 [Fe]2 [Fd]2 | [Fd]2 [Ec]2 [CE]2 [CF]2 | [EA]4 [EG]4 | (z4 GABc) | %24
w: His name! let songs|ex- ult- ant ev-|er ring!||
w: ||||
w: ||||
 [Fd]2 [Fd]2 [Fd]2 [Ec]2 | [Ec]2 [DB]2 [EA]2 [FB]2 | [Ec]4 [EG]4 | [Ge]6 [Ge]2 | [Fd]4 [Fd]4 | %29
w: * Hail with joy|the bless- èd com-|ing of|the King,|Our ho-|
w: |||||
w: |||||
 [Ec]4 [Ec]4 | B8- | [DB]6 z2 |] %32
w: ly Sav-|ior||
w: |||
w: |||
V:2
 x8 | x8 | x8 | x8 | x8 | x8 | x8 | x10 | x8 | x8 | x8 | x8 | x8 | x8 | x8 | F6 x2 || x8 | x8 | %18
 (D2 D2) (D2 F2) | (E2 E2 E2) x4 | x8 | x8 | x8 | [DF]6 x2 | x8 | x8 | x8 | x8 | x8 | x8 | %30
 D4 F2 E2 | x8 |] %32
V:3
 [B,,F,]2 [B,,F,]2 [B,,F,]2 [B,,F,]2 | [B,,B,]2 [B,,B,]2 [B,,B,]2 [B,,F,]2 | %2
w: ~ ~ ~ ~|~ ~ ~ ~|
 [B,,B,]2 [B,,B,]2 [B,,B,]2 [B,,B,]2 | [F,C]2 [F,C]2 [F,C]4 | [F,C]2 [F,C]2 [F,C]2 [F,C]2 | %5
w: ~ ~ ~ ~|~ ~ ~|~ ~ ~ ~|
 [F,C]2 [F,C]2 [F,A,]2 [F,A,]2 | [F,C]4 [F,A,]4 | (z2 D,2) x6 | %8
w: ~ ~ ~ ~|~ ~||
 [B,,F,]2 [B,,F,]2 [B,,F,]2 [B,,F,]2 | [B,,B,]2 [B,,B,]2 [B,,B,]2 [B,,F,]2 | %10
w: * ~ ~ ~|~ ~ ~ ~|
 [B,,B,]2 [B,,B,]2 [C,A,]2 [D,B,]2 | [F,C]2 [F,C]2 [F,C]4 | [F,A,]2 [F,A,]2 [G,B,]2 [G,B,]2 | %13
w: ~ ~ ~ ~|~ ~ ~|~ ~ ~ ~|
 [F,A,]2 [G,B,]2 [A,C]2 [B,D]2 | C4 [C,B,]4 | (z2 E,2 D,2 C,2) || [B,,B,]4 [B,,B,]4 | %17
w: ~ ~ ~ ~|~ ~||* ~|
 [B,,F,]4 [B,,F,]2 [B,,B,]2 | [B,,F,]2 [B,,F,]2 [B,,F,]2 [D,B,]2 | [F,C]2 [F,C]2 [F,C]2 z2 x2 | %20
w: ~ ~ Hail|with joy, hail with|joy the com-|
 [F,C]4 (C2 B,2) | [F,A,]4 [F,A,]2 [F,A,]2 | [F,C]2 [F,C]2 [F,A,]2 [F,A,]2 | %23
w: ing of *|the King, Praise|His name! praise His|
 [B,,B,]2 [B,,B,]2 [B,,B,]2 z2 | [B,,B,]4 [B,,B,]4 | [B,,F,]4 [C,F,]2 [D,B,]2 | %26
w: name! let songs|ex- ult-|ant ring! Hail|
 [E,G,]2 [E,G,]2 [E,B,]2 [E,B,]2 | [E,B,]2 [E,B,]2 [E,B,]2 [E,B,]2 | [F,B,]2 [F,B,]2 z2 [F,B,]2 | %29
w: with joy, hail with|joy the com- ing|of the King,|
 [F,A,]2 [F,A,]2 z2 [F,A,]2 | [B,,B,]2 [B,,B,]2 [B,,A,]2 [B,,G,]2 | [B,,F,]6 z2 |] %32
w: Our Sav- ior,|our Sav- ior, our|ho-|
V:4
 x8 | x8 | x8 | x8 | x8 | x8 | (F,,2 G,,2) (A,,2 F,,2) | [B,,B,]6 B,2 F,2 | x8 | x8 | x8 | x8 | %12
 x8 | x8 | C4 x4 | [F,A,]6 x2 || x8 | x8 | x8 | x10 | x4 F,4 | x8 | x8 | x8 | x8 | x8 | x8 | x8 | %28
 x8 | x8 | x8 | x8 |] %32

